blog/extra/copy.svg

<?xml version="1.0" encoding="UTF-8"?>
<svg width="1200pt" height="1200pt" version="1.1" viewBox="0 0 1200 1200" xmlns="http://www.w3.org/2000/svg">
 <path d="m960 300h-120v-150c0-49.199-40.801-90-90-90h-510c-49.199 0-90 40.801-90 90v630c0 49.199 40.801 90 90 90h120v150c0 49.199 40.801 90 90 90h510c49.199 0 90-40.801 90-90v-630c0-49.199-40.801-90-90-90zm-600 90v390h-120v-630h510v150h-300c-49.199 0-90 40.801-90 90zm600 630h-510v-630h510z" fill="#010202"/>
</svg>

<svg xmlns="http://www.w3.org/2000/svg" width="1600" height="1600" viewBox="0 0 1200 1200"><path fill="#010202" d="M960 300H840V150c0-49.199-40.801-90-90-90H240c-49.199 0-90 40.801-90 90v630c0 49.199 40.801 90 90 90h120v150c0 49.199 40.801 90 90 90h510c49.199 0 90-40.801 90-90V390c0-49.199-40.801-90-90-90m-600 90v390H240V150h510v150H450c-49.199 0-90 40.801-90 90m600 630H450V390h510z"/></svg>
